!!!SOCIAL_FUNCTION:	songs of personal narratives concerning war
!!!PDT:	1918

Specific Region: Dakotas, Minnesota, Montana, Nebraska
!!!REG: Dakotas and Montana
!!!LING_GROUP: Siouan
!!!LANG: Tone
!!!OTL@ENG: Song of Self-reliance
!!!ONM: No. 177
**kern
*Imale
*clefF4
*k[f#c#g#d#a#]
*M3/4
*MM76
16f#
4f#
=1
4.f#
8f#
4f#
=2
4.d#
8d#
4d#
=3
4.d#
8f#
8f#
8d#
=4
[4c#
16c#]
16B
8c#
8c#
8c#
=5
[4B
16B]
16G#
8B
8.B
16G#
=6||
*M2/4
4F#
8B
8B
=7||
*M3/4
[4B
16B]
16G#
8B
8.B
16G#
=8
8F#
8F#
2F#
=9||
*M2/4
2F#
=10
8r
8F#
8d#
8d#
=11
4d#
8d#
8f#
=12
8f#
8f#
(8f#
8d#)
=13||
*M3/4
4c#
8c#
8c#
8c#
8e
=14
4c#
8B
8B
16B
16G#
8B
=15
8.B
16G#
4F#
8B
8B
=16
[4B
16B]
16G#
8B
4B
=17
8F#
8F#
2F#
=18
4F#
2r
==
*-
!!!CNT: Native American -- Sioux
!!!MRD: 1911/07//-1914///
!!!OCL: Frances Densmore
!!!YOR1: Teton Sioux Music, Bulletin 61,
!!!YOR2: Bureau of American Ethnology, Smithsonian Institution
!!!PPR: Government Printing Office
!!!PPP: Washington, D.C.
!!!PDT: 1918///
!!!ENC: Craig Stuart Sapp
!!!END: 2002/03/25/
!!!EEV: 2002/03/31/
!!!AGN: War Song/Song of Personal Narrative Concerning War
!!!MPN@@SIO: Tatangk'-ehang'ni
!!!MPN@ENG: Old Buffalo
!!!TXO: Teton Sioux
!!!MLC: Standing Rock Reservation, South Dakota, United States of America
!!!ARL: 45.9/-100.7#
!!!catalog: Catalogue No. 636
!!!PPG: 411
!!!EFL: 182/245
!!!VTS: 3515678884
